X: 313
T: The frost is all over
C: anon.
O: Ireland
B: Francis O'Neill: "The Dance Music of Ireland" (1907) no. 313
R: Double jig
Z: Transcribed by Frank Nordberg - http://www.musicaviva.com
F: http://www.musicaviva.com/abc/tunes/ireland/oneill-1001/oneill-1001-031
3.abc
m: Tn2 = (3n/o/n/ o/n/
M: 6/8
L: 1/8
K: D
AW||def edB|AFD (TE2D)|FAA AFA|Bee edB|def edB|AFD (TE2D)|FAA AFA|Bdd d2:
|
|:g|fga agf|gab bag|fga agf|gfg e2g|fga agf|gab bag|fed efg|fdd d2g|
fga agf|gab bag|fga agf|gfg e2g|fga fga|gab gab|fed efg|fed edBW:|
W:
W:
W: From Musica Viva - http://www.musicaviva.com
W: the Internet center for free sheet music downloads.


